src/assets/img/Home/icons/CaseItem/sae.svg

<svg width="30" height="30" viewBox="0 0 30 30" fill="none" xmlns="http://www.w3.org/2000/svg">
<g id="Icon">
<g id="Subtract">
<path fill-rule="evenodd" clip-rule="evenodd" d="M3.75 2.8125C3.23223 2.8125 2.8125 3.23223 2.8125 3.75C2.8125 4.26777 3.23223 4.6875 3.75 4.6875V25.3125H2.8125C2.29473 25.3125 1.875 25.7322 1.875 26.25C1.875 26.7678 2.29473 27.1875 2.8125 27.1875H18.75V4.6875C19.2678 4.6875 19.6875 4.26777 19.6875 3.75C19.6875 3.23223 19.2678 2.8125 18.75 2.8125H3.75ZM8.4375 24.375V21.5625C8.4375 21.0447 8.85723 20.625 9.375 20.625H13.125C13.6428 20.625 14.0625 21.0447 14.0625 21.5625V24.375C14.0625 24.8928 13.6428 25.3125 13.125 25.3125H9.375C8.85723 25.3125 8.4375 24.8928 8.4375 24.375ZM7.5 8.4375C7.5 7.91973 7.91973 7.5 8.4375 7.5H9.375C9.89277 7.5 10.3125 7.91973 10.3125 8.4375C10.3125 8.95527 9.89277 9.375 9.375 9.375H8.4375C7.91973 9.375 7.5 8.95527 7.5 8.4375ZM8.4375 11.25C7.91973 11.25 7.5 11.6697 7.5 12.1875C7.5 12.7053 7.91973 13.125 8.4375 13.125H9.375C9.89277 13.125 10.3125 12.7053 10.3125 12.1875C10.3125 11.6697 9.89277 11.25 9.375 11.25H8.4375ZM7.5 15.9375C7.5 15.4197 7.91973 15 8.4375 15H9.375C9.89277 15 10.3125 15.4197 10.3125 15.9375C10.3125 16.4553 9.89277 16.875 9.375 16.875H8.4375C7.91973 16.875 7.5 16.4553 7.5 15.9375ZM13.125 7.5C12.6072 7.5 12.1875 7.91973 12.1875 8.4375C12.1875 8.95527 12.6072 9.375 13.125 9.375H14.0625C14.5803 9.375 15 8.95527 15 8.4375C15 7.91973 14.5803 7.5 14.0625 7.5H13.125ZM12.1875 12.1875C12.1875 11.6697 12.6072 11.25 13.125 11.25H14.0625C14.5803 11.25 15 11.6697 15 12.1875C15 12.7053 14.5803 13.125 14.0625 13.125H13.125C12.6072 13.125 12.1875 12.7053 12.1875 12.1875ZM13.125 15C12.6072 15 12.1875 15.4197 12.1875 15.9375C12.1875 16.4553 12.6072 16.875 13.125 16.875H14.0625C14.5803 16.875 15 16.4553 15 15.9375C15 15.4197 14.5803 15 14.0625 15H13.125Z" fill="#CAFF33"/>
<path fill-rule="evenodd" clip-rule="evenodd" d="M20.625 8.4375V27.1875H27.1875C27.7053 27.1875 28.125 26.7678 28.125 26.25C28.125 25.7322 27.7053 25.3125 27.1875 25.3125H26.25V10.3125C26.7678 10.3125 27.1875 9.89277 27.1875 9.375C27.1875 8.85723 26.7678 8.4375 26.25 8.4375H20.625ZM22.5 14.0625C22.5 13.5447 22.9197 13.125 23.4375 13.125H23.4469C23.9646 13.125 24.3844 13.5447 24.3844 14.0625V14.0719C24.3844 14.5896 23.9646 15.0094 23.4469 15.0094H23.4375C22.9197 15.0094 22.5 14.5896 22.5 14.0719V14.0625ZM23.4375 16.875C22.9197 16.875 22.5 17.2947 22.5 17.8125V17.8219C22.5 18.3396 22.9197 18.7594 23.4375 18.7594H23.4469C23.9646 18.7594 24.3844 18.3396 24.3844 17.8219V17.8125C24.3844 17.2947 23.9646 16.875 23.4469 16.875H23.4375ZM22.5 21.5625C22.5 21.0447 22.9197 20.625 23.4375 20.625H23.4469C23.9646 20.625 24.3844 21.0447 24.3844 21.5625V21.5719C24.3844 22.0896 23.9646 22.5094 23.4469 22.5094H23.4375C22.9197 22.5094 22.5 22.0896 22.5 21.5719V21.5625Z" fill="#CAFF33"/>
</g>
</g>
</svg>

<svg xmlns="http://www.w3.org/2000/svg" width="30" height="30" fill="none"><g fill="#CAFF33" fill-rule="evenodd" clip-rule="evenodd"><path d="M3.75 2.813a.937.937 0 1 0 0 1.874v20.625h-.938a.937.937 0 1 0 0 1.875H18.75v-22.5a.937.937 0 1 0 0-1.875h-15Zm4.688 21.562v-2.813c0-.517.42-.937.937-.937h3.75c.518 0 .938.42.938.938v2.812c0 .518-.42.938-.938.938h-3.75a.937.937 0 0 1-.938-.938ZM7.5 8.437c0-.517.42-.937.938-.937h.937a.937.937 0 1 1 0 1.875h-.938a.937.937 0 0 1-.937-.938Zm.938 2.813a.937.937 0 1 0 0 1.875h.937a.937.937 0 1 0 0-1.875h-.938ZM7.5 15.938c0-.518.42-.938.938-.938h.937a.937.937 0 1 1 0 1.875h-.938a.937.937 0 0 1-.937-.938ZM13.125 7.5a.937.937 0 1 0 0 1.875h.938a.937.937 0 1 0 0-1.875h-.938Zm-.938 4.688c0-.518.42-.938.938-.938h.938a.937.937 0 1 1 0 1.875h-.938a.937.937 0 0 1-.938-.938ZM13.126 15a.937.937 0 1 0 0 1.875h.938a.937.937 0 1 0 0-1.875h-.938ZM20.625 8.438v18.75h6.563a.937.937 0 1 0 0-1.875h-.938v-15a.937.937 0 1 0 0-1.876h-5.625Zm1.875 5.624c0-.517.42-.937.938-.937h.009c.518 0 .937.42.937.938v.009c0 .518-.42.937-.937.937h-.01a.938.938 0 0 1-.937-.937v-.01Zm.938 2.813a.937.937 0 0 0-.938.938v.009c0 .518.42.937.938.937h.009c.518 0 .937-.42.937-.937v-.01a.938.938 0 0 0-.937-.937h-.01Zm-.938 4.688c0-.518.42-.938.938-.938h.009c.518 0 .937.42.937.938v.009c0 .518-.42.937-.937.937h-.01a.938.938 0 0 1-.937-.937v-.01Z"/></g></svg>
